svgs/sharp-light/album-collection-circle-plus.svg

<svg xmlns="http://www.w3.org/2000/svg" viewBox="0 0 640 512"><!--! Font Awesome Pro 6.6.0 by @fontawesome - https://fontawesome.com License - https://fontawesome.com/license (Commercial License) Copyright 2024 Fonticons, Inc. --><path d="M32 0L48 0 464 0l16 0 0 32-16 0L48 32 32 32 32 0zM16 64l16 0 448 0 16 0 0 32-16 0L32 96 16 96l0-32zm19.5 96L68.8 480l291.4 0c10 12.1 21.7 22.9 34.6 32L40 512 3.3 160 0 128l32.2 0 447.7 0 32.2 0-3.3 32-3.4 32.2c-3.1-.2-6.2-.2-9.3-.2c-7.8 0-15.5 .5-23 1.5l3.5-33.5-441 0zM256 192c49 0 92.8 17.6 122.1 45.3c-8 7.2-15.2 15.1-21.8 23.6C334 239.3 299.3 224 256 224c-77.7 0-128 49.3-128 96s50.3 96 128 96c25.7 0 48.4-5.4 67.2-14.3c2.1 10.7 5.1 21 9 30.8C309.6 442.4 283.6 448 256 448c-88.4 0-160-57.3-160-128s71.6-128 160-128zm0 152c-13.3 0-24-9-24-20s10.7-20 24-20s24 9 24 20s-10.7 20-24 20zm352 24a112 112 0 1 0 -224 0 112 112 0 1 0 224 0zm-256 0a144 144 0 1 1 288 0 144 144 0 1 1 -288 0zm160-64l0 48 48 0 16 0 0 32-16 0-48 0 0 48 0 16-32 0 0-16 0-48-48 0-16 0 0-32 16 0 48 0 0-48 0-16 32 0 0 16z"/></svg>

<svg xmlns="http://www.w3.org/2000/svg" viewBox="0 0 640 512"><!--! Font Awesome Pro 6.4.0 by @fontawesome - https://fontawesome.com License - https://fontawesome.com/license (Commercial License) Copyright 2023 Fonticons, Inc. --><path d="M32 0H48 464h16V32H464 48 32V0zM16 64H32 480h16V96H480 32 16V64zm19.5 96L68.8 480H360.2c10 12.1 21.7 22.9 34.6 32H40L3.3 160 0 128H32.2 479.8 512l-3.3 32-3.4 32.2c-3.1-.2-6.2-.2-9.3-.2c-7.8 0-15.5 .5-23 1.5l3.5-33.5H35.5zM256 192c49 0 92.8 17.6 122.1 45.3c-8 7.2-15.2 15.1-21.8 23.6C334 239.3 299.3 224 256 224c-77.7 0-128 49.3-128 96s50.3 96 128 96c25.7 0 48.4-5.4 67.2-14.3c2.1 10.7 5.1 21 9 30.8C309.6 442.4 283.6 448 256 448c-88.4 0-160-57.3-160-128s71.6-128 160-128zm0 152c-13.3 0-24-9-24-20s10.7-20 24-20s24 9 24 20s-10.7 20-24 20zm352 24a112 112 0 1 0 -224 0 112 112 0 1 0 224 0zm-256 0a144 144 0 1 1 288 0 144 144 0 1 1 -288 0zm160-64v48h48 16v32H560 512v48 16H480V432 384H432 416V352h16 48V304 288h32v16z"/></svg>
